X: 28692
T: My Ballingarry Lady
R: waltz
M: 3/4
K: Dmajor
|:F/G|A2 d2 dA|B2 d2 (3dcB|AB df ab|a3 f ga|
gf ef ge|fe df ed|B2 e3 d|ce Be B^A|
A2 d2 dA|B2 d2 (3dcB|AB df ab|a3 f ga|
gf ef ge|fe dc B^A|A2 f3 e|d4:|
|:e/f/g|a3 f df|e>d ce dB|(3 ABA FA df|e3 ^d ef|
gf eg fe|fe df ed|B2 e3 d|(3Bcd e2 (3fge|
a3 f df|e>d ce dB|(3ABA FA dc|B4 (3 BAG|
(3FGA df af|ed ce dB|A2 f3 e|d4:|

